packages/icons/svgs/duotone/Source=pin.svg

<svg width="24" height="24" viewBox="0 0 24 24" fill="none" xmlns="http://www.w3.org/2000/svg">
<path fill-rule="evenodd" clip-rule="evenodd" d="M12 2C8.55148 2 5 4.54797 5 9C5 9.98482 5.41279 11.238 6.13802 12.6386C6.852 14.0175 7.81545 15.4391 8.79682 16.7333C9.77554 18.024 10.7567 19.1679 11.4943 19.99C11.6799 20.1969 11.8498 20.383 12 20.5457C12.1502 20.383 12.3201 20.1969 12.5057 19.99C13.2433 19.1679 14.2245 18.024 15.2032 16.7333C16.1845 15.4391 17.148 14.0175 17.862 12.6386C18.5872 11.238 19 9.98482 19 9C19 4.54797 15.4485 2 12 2ZM12 22C11.2885 22.7027 11.2882 22.7024 11.2882 22.7024L11.281 22.6951L11.2622 22.6759C11.2459 22.6592 11.2222 22.6349 11.1917 22.6034C11.1307 22.5404 11.0421 22.4483 10.9301 22.3299C10.706 22.0932 10.3874 21.751 10.0057 21.3256C9.2433 20.4759 8.22446 19.2885 7.20318 17.9417C6.18455 16.5984 5.148 15.0762 4.36198 13.5583C3.58721 12.062 3 10.4652 3 9C3 3.25203 7.64852 0 12 0C16.3515 0 21 3.25203 21 9C21 10.4652 20.4128 12.062 19.638 13.5583C18.852 15.0762 17.8155 16.5984 16.7968 17.9417C15.7755 19.2885 14.7567 20.4759 13.9943 21.3256C13.6126 21.751 13.294 22.0932 13.0699 22.3299C12.9579 22.4483 12.8693 22.5404 12.8083 22.6034C12.7778 22.6349 12.7541 22.6592 12.7378 22.6759L12.719 22.6951L12.7123 22.7019C12.7123 22.7019 12.7115 22.7027 12 22ZM12 22L12.7115 22.7027L12 23.4231L11.2882 22.7024L12 22Z" fill="black" style="fill:black;fill-opacity:1;"/>
<path opacity="0.55" fill-rule="evenodd" clip-rule="evenodd" d="M12 7C10.8954 7 10 7.89543 10 9C10 10.1046 10.8954 11 12 11C13.1046 11 14 10.1046 14 9C14 7.89543 13.1046 7 12 7ZM8 9C8 6.79086 9.79086 5 12 5C14.2091 5 16 6.79086 16 9C16 11.2091 14.2091 13 12 13C9.79086 13 8 11.2091 8 9Z" fill="black" style="fill:black;fill-opacity:1;"/>
</svg>

<svg xmlns="http://www.w3.org/2000/svg" width="24" height="24" viewBox="0 0 24 24"><path fill-rule="evenodd" d="M12 2C8.551 2 5 4.548 5 9c0 .985.413 2.238 1.138 3.639.714 1.379 1.677 2.8 2.659 4.094A52 52 0 0 0 12 20.546q.226-.246.506-.556a52 52 0 0 0 2.697-3.257c.982-1.294 1.945-2.716 2.659-4.094C18.587 11.238 19 9.985 19 9c0-4.452-3.552-7-7-7m0 20c-.711.703-.712.702-.712.702l-.007-.007-.019-.02a24 24 0 0 1-.332-.345 54 54 0 0 1-3.727-4.388c-1.018-1.344-2.055-2.866-2.841-4.384C3.587 12.062 3 10.465 3 9c0-5.748 4.649-9 9-9 4.352 0 9 3.252 9 9 0 1.465-.587 3.062-1.362 4.558-.786 1.518-1.823 3.04-2.841 4.384a54 54 0 0 1-4.06 4.734l-.018.02-.007.006zm0 0 .711.703-.711.72-.712-.72z" clip-rule="evenodd"/><path fill-rule="evenodd" d="M12 7a2 2 0 1 0 0 4 2 2 0 0 0 0-4M8 9a4 4 0 1 1 8 0 4 4 0 0 1-8 0" clip-rule="evenodd" opacity=".55"/></svg>
